X: 100276
T: HUNTLY'S WEDDING MEDLEY -- Strathspey
R: strathspey
B: K\"ohler's Violin Repository, v.3, 1885 p.204 #3
F: http://www.archive.org/details/klersviolinrepos03rugg
Z: 2012 John Chambers <jc:trillian.mit.edu>
M: C|
L: 1/16
K: A
(ubagf) |\
(.e3.c) {AB}(c3A) FA3(E3D) | (C3E)A2g2 a4 (bagf) |\
(.e3.A) {AB}(c3A) FA3 (E3C) | (EFGA) (B3G) A6 (ub/a/g/f/) |
(.e3.A) {AB}(c3A) FA3(E3D) | (C3E)A2g2 a4 (bagf) |\
(.e3A) {AB}(c3A) FA3 (E3C) | (EFGA) (B3G) A6 || uE2 |
CE3(E3G) (AE3)E3C | C(E3A3B) | ~c4 (dcBA) |\
CE3(E3G) (AE3)E3C | (EFGA) (B3G) A4 (A2E2) |
CE3(E3G) (AE3)E3D | C3EA2g2 a4 (bagf) |\
(3e2c2e2 (3f2d2f2 (3g2e2g2 {g}(a3f) | (efga) (b3g) "_Segue Reel."a4 "^D.C."|]

%%sep 2 1 500

